packages/vibrant-icons/assets/icons/Divider/Fill.svg

<svg width="24" height="24" viewBox="0 0 24 24" fill="none" xmlns="http://www.w3.org/2000/svg">
<path d="M19.6499 21.8504V17.6004H4.3499V21.8504H2.1499V15.4004H21.8499V21.8504H19.6499ZM0.899902 13.1004V10.9004H23.0999V13.1004H0.899902ZM2.1499 8.60039V2.15039H4.3499V6.40039H19.6499V2.15039H21.8499V8.60039H2.1499Z" fill="#0C0C0C"/>
</svg>

<svg xmlns="http://www.w3.org/2000/svg" width="24" height="24" fill="none"><path fill="#0C0C0C" d="M19.65 21.85V17.6H4.35v4.25h-2.2V15.4h19.7v6.45zM.9 13.1v-2.2h22.2v2.2zm1.25-4.5V2.15h2.2V6.4h15.3V2.15h2.2V8.6z"/></svg>
